X: 1616
T: Spellan's Fiddle
R:hornpipe
N:"Collected by J. O'Neill"
B:O'Neill's 1616
Z:Transcribed by Michael Hogan
M:C|
L:1/8
K:A
c>d | e>ag>b a>fe>c | A>GA>B c>AE>D | C>EA>c d>cB>A | G>Be>g f>cd>B |
A>ag>b a>fe>c | A>GA>B c>AE>D | C>EA>c (3Bgf (3edB | A2 c2 A2 :|
|: G>A | B>cB>A G>Be>f | g>ag>e B>eg>b |a>gf>a g>fe>g | f>b^d>b c>bB>b |
B>cB>A G>Be>f | g>ag>e B>eg>b | a>f^d>B (3dcB (3AGF | (3EGB (3egb e'2 :||


